X: 29275
T: New Mown Meadows, The
R: reel
M: 4/4
K: Adorian
B|(A2 A2) BABd|egfg edBd|A2 A2 BABc|d2 ed Bd{e}dB|
(A2 A2) BABd|(3efg fg edBd|g2 {a}ge fa{b}af|dfed Bd{e}de||
fa{b}af bfaf|(3efg fg edBd|fa{b}af bfaf|d2 ed Bd{e}de|
fa{b}af bfaf|(3efg fg edBd|g2 {a}ge fa{b}af|d2 ed Bd{e}d||

